X:24
T:Laura and Lensa. WCF.024
M:2/4
L:1/16
Q:1/4=100
S:Wm Clarke MS, Feltwell, 1858
O:England
A:Norfolk
Z:Transcription Lyn Law 04/2006
K:D
“^quick”fe|d2f2d2f2|e2a2 agfe|d2f2d2f2|edcB A2Bc|!
d2f2d2f2|e2a2 agfe|d2f2e2 ag|f2d2d2:|!
|:A2|e^ded efge|f2d2 d2ef|edcB ABcA|d2f2e2A2|!
e^ded efge|f2d2 d2ef|edcB ABcA|d2f2d2:|]

